!!!COM: Mozart, Wolfgang Amadeus
!!!CDT: 1756/01/27/-1791/12/05/
!!!CNT: German
!!!OTL: Piano Sonata No. 2 in F major
!!!SCT1: K<sup>1</sup> 280
!!!SCT2: K<sup>6</sup> 189e
!!!OMV: 3
!!!OMD: Presto
!!!ODT: 1774///
**kern	**kern	**dynam
*staff2	*staff1	*staff1/2
*>[A,A,B,B]	*>[A,A,B,B]	*>[A,A,B,B]
*>norep[A,B]	*>norep[A,B]	*>norep[A,B]
*>A	*>A	*>A
*clefF4	*clefG2	*clefG2
*k[b-]	*k[b-]	*k[b-]
*F:	*F:	*F:
*M3/8	*M3/8	*M3/8
*MM160	*MM160	*MM160
8r	(16cccLL	f
.	16aaJJ	.
=1	=1	=1
4.r	8ff'L)	.
.	8ff'	.
.	8ff'J	.
*clefG2	*	*
=2	=2	=2
.	32eeqq	.
8g 8cc	8bb-	p
8r	8r	.
8r	8r	.
=3	=3	=3
.	32ffqq	.
8f 8cc	8aa	.
8r	8r	.
8r	8r	.
=4	=4	=4
.	32eeqq	.
8b- 8cc	8gg	.
8r	8r	.
8r	8r	.
=5	=5	=5
(4.a	(16ffLL	f
.	16gg	.
.	16aa	.
.	16ff	.
.	16cc	.
.	16cc#JJ	.
=6	=6	=6
8b-/)	16ddLL	.
.	16ee	.
8r	16ff	.
.	16dd	.
8r	16g	.
.	16aJJ	.
=7	=7	=7
(8GL	16b-LL<	.
.	16cc	.
8B-	16dd	.
.	16b-	.
8BnJ	16d	.
.	16fJJ	.
=8	=8	=8
8c)	16eLL	.
.	16f	.
8r	16g	.
.	16eJJ	.
8r	16ccLL>	.
.	16aJJ	.
=9	=9	=9
4.r	8f'L)	.
.	8f'	.
.	8f'J	.
*clefF4	*	*
=10	=10	=10
.	(32eqq	.
8G 8c	8b-/)	p
8r	8r	.
8r	8r	.
=11	=11	=11
.	(32fqq	.
8F 8c	8a)	.
8r	8r	.
8r	8r	.
=12	=12	=12
.	(32eqq	.
8B- 8c	8g)	.
8r	8r	.
8r	8r	.
=13	=13	=13
4.AA (<(4.A	(>16fLL	f
.	16g	.
.	16a	.
.	16b-	.
.	16cc	.
.	16cc#JJ	.
=14	=14	=14
8BB- 8B-))	16ddLL	.
.	16ee	.
8r	16ff	.
.	16gg	.
8r	16aa	.
.	16bb-JJ	.
=15	=15	=15
8r	8ccc')	.
8cL	8a 8ffL	.
8CJ	8g 8eeJ	.
=16	=16	=16
8FL	4a 4ff	.
8FF	.	.
8FFJ	8r	.
=17	=17	=17
8FFL	(8d 8b-L	p
8FF	8c 8a	.
8FFJ	8B-) 8gJ	.
=18	=18	=18
8FFL	(8B- 8gL	.
8FF	8A) 8f	.
8FFJ	8A' 8f'J	.
=19	=19	=19
8FFL	8A' 8f'L	.
8FF	8B-' 8g'	.
8FFJ	8G' 8e'J	.
=20	=20	=20
8FFL	8A 8f	.
8F	8r	.
8FJ	8r	.
=21	=21	=21
8FL	8b- (8ddL	.
8F	8a 8cc	.
8FJ	8g 8b-J)	.
=22	=22	=22
8FL	(8g 8b-L	.
8F	8f) 8a	.
8FJ	8f' 8a'J	.
=23	=23	=23
8FL	8f' 8a'L	.
8F	8g' 8b-'	.
8FJ	8e' 8g'J	.
=24	=24	=24
8FL	8f 8a	.
8F	8r	.
8FJ	8r	.
*clefG2	*	*
=25	=25	=25
8f	16r	f
.	(16aLL	.
8r	16dd	.
.	16ffJJ	.
16r	8aa)	.
(16f	.	.
=26	=26	=26
8e)	16r	.
.	(16gLL	.
8r	16cc	.
.	16eeJJ	.
16r	8gg)	.
(16e	.	.
=27	=27	=27
8d)	16r	.
.	(16fLL	.
8r	16bn	.
.	16ddJJ	.
16r	8ff)	.
(16d	.	.
=28	=28	=28
8c)	16r	.
.	(16eLL	.
8r	16g	.
.	16ccJJ	.
16r	8ee)	.
(16c	.	.
=29	=29	=29
4f)	16r	.
.	(16aLL	.
.	16dd	.
.	16cc#	.
8r	16ee	.
.	16ddJJ	.
=30	=30	=30
4.r	16ffLL	.
.	16ee	.
.	16gg	.
.	16ff	.
.	16aa	.
.	16gg#JJ	.
*clefF4	*	*
=31	=31	=31
8r	8aa)	.
8r	8r	.
(8F#	8e (8cc	p
=32	=32	=32
8G)	8d 8bn)	.
8r	8r	.
(8FF#	8r	f
=33	=33	=33
8GG)	8r	.
8r	8r	.
*clefG2	*	*
(8f#	8ee (8ccc	p
=34	=34	=34
8g)	8dd 8bbn)	.
8r	8r	.
(8ff#	8r	f
=35	=35	=35
8gg)	8r	.
8r	8r	.
*clefF4	*	*
(8F#	(8e 8cc	p
=36	=36	=36
8G)	8d) 8bn	.
8r	8r	.
(8FF#	8r	f
=37	=37	=37
8GG)	4.r;	.
8r	.	.
8r;	.	.
=38	=38	=38
4.r	8.ffnL	p
.	16ffk	.
.	8ffJ	.
=39	=39	=39
.	(32ffqLLL	.
.	32ggqJJJ	.
4.r	8.aaL)	.
.	16ggk	.
.	8ffJ	.
=40	=40	=40
4.r	8.ffL	.
.	16ffk	.
.	8ffJ	.
=41	=41	=41
.	(32ffqLLL	.
.	32ggqJJJ	.
4.r	8.aaL)	.
.	16ggk	.
.	8ffJ	.
*clefG2	*	*
=42	=42	=42
!LO:TX:i:a:t=legato	!	!
16cLL	8ee	.
16g	.	.
16e	8r	.
16g	.	.
16c	8ee	.
16gJJ	.	.
=43	=43	=43
16BnLL	(4gg	fp
16g	.	.
16d	.	.
16g	.	.
16B	8ff)	.
16gJJ	.	.
=44	=44	=44
16cLL	8ee	.
16g	.	.
16e	8r	.
16g	.	.
16c	8ee	.
16gJJ	.	.
=45	=45	=45
16BnLL	(4gg	fp
16g	.	.
16d	.	.
16g	.	.
16B	8ff)	.
16gJJ	.	.
=46	=46	=46
16cLL	8ee	.
16e	.	.
16g	8r	.
16cc	.	.
16bn	8ee	.
16ccJJ	.	.
=47	=47	=47
4a/ 4cc/	(8ggL	f
.	8ff)	.
8g 8bn	8eeJ	p
=48	=48	=48
4f 4a	(8eeL	f
.	8dd)	.
(8f#	8ccJ	p
=49	=49	=49
8g)	8.ccTL	.
8r	.	.
.	16ddk	.
8r	8bnJ	.
=50	=50	=50
8.dL	8.ffnL	p
16dk	16ffk	.
8dJ	8ffJ	.
=51	=51	=51
(32dqLLL	(32ffqLLL	.
32eqJJJ	32ggqJJJ	.
8.fL)	8.aaL)	.
16ek	16ggk	.
8dJ	8ffJ	.
=52	=52	=52
8.dL	8.ffL	.
16dk	16ffk	.
8dJ	8ffJ	.
=53	=53	=53
(32dqLLL	(32ffqLLL	.
32eqJJJ	32ggqJJJ	.
8.fL)	8.aaL)	.
16ek	16ggk	.
8dJ	8ffJ	.
=54	=54	=54
!	!LO:TX:i:a:t=legato	!
8c	16eeLL	.
.	16cc	.
8r	16g	.
.	16cc	.
8r	16ee	.
.	16ccJJ	.
*clefF4	*	*
=55	=55	=55
4.BBn ((4.Bn	16ggLL	fp
.	16g	.
.	16ff#	.
.	16g	.
.	16ffn	.
.	16gJJ	.
=56	=56	=56
8C 8c))	16eeLL	.
.	16cc	.
8r	16g	.
.	16cc	.
8r	16ee	.
.	16ccJJ	.
=57	=57	=57
4.BBn ((4.Bn	16ggLL	fp
.	16g	.
.	16ff#	.
.	16g	.
.	16ffn	.
.	16gJJ	.
=58	=58	=58
8C 8c))	16eeLL	.
.	16gg	.
8r	16ccc	.
.	16bbn	.
8r	16aa	.
.	16ggJJ	.
*clefG2	*	*
=59	=59	=59
4a 4cc	16ffLL	f
.	16gg	.
.	16aa	.
.	16ff	.
8g 8bn	16dd#	p
.	16eeJJ	.
=60	=60	=60
4f 4a	16ddnLL	f
.	16ee	.
.	16ff	.
.	16dd	.
8e 8g	16bn	p
.	16ccJJ	.
=61	=61	=61
8fL	16ddLL	f
.	16ff	.
8g	16ee	.
.	16cc	.
8GJ	16bn	.
.	16ddJJ	.
=62	=62	=62
8c	16ccLL	.
.	16dd	.
8r	16ee	.
.	16cc	.
8r	16a	.
.	16gJJ	.
*clefF4	*	*
=63	=63	=63
4A 4c	16fLL	f
.	16g	.
.	16a	.
.	16f	.
8G 8BnX	16d#	p
.	16eJJ	.
=64	=64	=64
4F 4A	16dnLL	f
.	16e	.
.	16f	.
.	16d	.
8E 8G	16Bn	p
.	16cJJ	.
=65	=65	=65
8FL	16dLL	f
.	16f	.
8G	16e	.
.	16c	.
8GGJ	16Bn	.
.	16dJJ	.
=66	=66	=66
8C	8c	.
8r	8g'L	p
8r	8e'J	.
=67	=67	=67
8r	8c'	.
8E 8B-XL	8r	.
8E 8B-J	8r	.
=68	=68	=68
8F 8A	8r	.
8r	8cc'L>	.
8r	8a'J	.
=69	=69	=69
8r	8f'	.
8A 8cL	8r	.
8A 8cJ	8r	.
=70	=70	=70
8G 8Bn	8r	.
8r	8ff'L	.
8r	8dd'J	.
=71	=71	=71
8r	8bn'	.
8G 8fL	8r	.
8G 8fJ	8r	.
=72	=72	=72
8c 8e	16r	.
.	(16ccLL	f
8r	16bn	.
.	16cc	.
8r	16ee	.
.	16ggJJ)	.
=73	=73	=73
8G 8d	16r	.
.	(16ffLL	.
8r	16ee	.
.	16ff	.
8r	16dd	.
.	16bnJJ)	.
=74	=74	=74
8c 8e	16r	.
.	(16ccLL	.
8r	16bn	.
.	16cc	.
8r	16ee	.
.	16ggJJ)	.
=75	=75	=75
8G 8d	16r	.
.	(16ffLL	.
8r	16ee	.
.	16ff	.
8r	16dd	.
.	16bnJJ	.
=76	=76	=76
(16CLL	8ccL)	.
16c	.	.
16e	8ee 8ccc	.
16c	.	.
16G	8ee 8cccJ	.
16EJJ	.	.
=77	=77	=77
8C)	8ee 8ccc	.
8r	8r	.
=:|!|:	=:|!|:	=:|!|:
*>B	*>B	*>B
8r	8r	.
=78	=78	=78
4.r	8.ccL	p
.	16cck	.
.	8ccJ	.
=79	=79	=79
.	(32ccqLLL	.
.	32ddqJJJ	.
4.r	8.ee-L)	.
.	16ddk	.
.	8ccJ	.
=80	=80	=80
4.r	8.ccL	.
.	16cck	.
.	8ccJ	.
=81	=81	=81
.	(32ccqLLL	.
.	32ddqJJJ	.
4.r	8.ee-L)	.
.	16ddk	.
.	8ccJ	.
=82	=82	=82
(16DDLL	4.aa 4.ccc	f
16D	.	.
16EE	.	.
16E	.	.
16FF#	.	.
16F#JJ	.	.
=83	=83	=83
16GGLL	[4.gg 4.bb-	.
16G	.	.
16AA	.	.
16A	.	.
16BB-	.	.
16B-JJ	.	.
=84	=84	=84
*	*^	*
16CLL	4.aa	4gg]	.
16c	.	.	.
16AA	.	.	.
16A	.	.	.
16D	.	8ff#	.
16dJJ)	.	.	.
=85	=85	=85	=85
4G 4B-	4gg	4gg	.
8r	8r	8ryy	.
*	*v	*v	*
=86	=86	=86
4.r	8.b-L	p
.	16b-k	.
.	8b-J	.
=87	=87	=87
.	(32b-qLLL	.
.	32ccqJJJ	.
4.r	8.dd-L)	.
.	16cck	.
.	8b-J	.
=88	=88	=88
4.r	8.b-L	.
.	16b-k	.
.	8b-J	.
=89	=89	=89
.	(32b-qLLL	.
.	32ccqJJJ	.
4.r	8.dd-L)	.
.	16cck	.
.	8b-J	.
=90	=90	=90
4.G 4.B-	(16cLL	f
.	16cc	.
.	16dn	.
.	16ddn	.
.	16en	.
.	16eenJJ	.
=91	=91	=91
4.F 4.A	16fLL	.
.	16ff	.
.	16g	.
.	16gg	.
.	16a	.
.	16aaJJ)	.
=92	=92	=92
(16CCLL	4.gg 4.bb-	.
16C	.	.
16DD	.	.
16D	.	.
16EE	.	.
16EJJ	.	.
=93	=93	=93
16FFLL	4.ff 4.aa	.
16F	.	.
16GG	.	.
16G	.	.
16AA	.	.
16AJJ)	.	.
=94	=94	=94
4.E 4.G	(16ALL	.
.	16a	.
.	16Bn	.
.	16bn	.
.	16c#	.
.	16cc#JJ	.
=95	=95	=95
4.D 4.F	16dLL	.
.	16dd	.
.	16e	.
.	16ee	.
.	16f)	.
.	16ffJJ	.
=96	=96	=96
(16AAALL	4.ee 4.gg	.
16AA	.	.
16BBBn	.	.
16BBn	.	.
16CC#	.	.
16C#JJ	.	.
=97	=97	=97
16DDLL	4.dd 4.ff	.
16D	.	.
16EE	.	.
16E	.	.
16FF	.	.
16FJJ)	.	.
=98	=98	=98
8G	16r	.
.	(16ee-LL	p
8r	16dd	.
.	16ee-	.
*clefG2	*	*
((8g 8b-	16gg	.
.	16ee-JJ)	.
=99	=99	=99
8f 8a))	16r	.
.	(16ddLL	.
8r	16cc#	.
.	16dd	.
((8f 8a	16ff	.
.	16ddJJ)	.
=100	=100	=100
8en 8g))	16r	.
.	(16cc#LL	.
8r	16bn	.
.	16cc#	.
((8e 8g	16een	.
.	16cc#JJ)	.
=101	=101	=101
8f 8a))	16r	.
.	(16ddLL	.
8r	16cc#	.
.	16dd	.
8f 8a	16ff	.
.	16ddJJ)	.
*clefF4	*	*
=102	=102	=102
16r	8dd 8gg# 8ddd	f
(16B-XLL	.	.
16A	8r	.
16B-	.	.
16d	8r	.
16B-JJ)	.	.
=103	=103	=103
16r	8ee 8aa 8ccc#	.
(16ALL	.	.
16G#	8r	.
16A	.	.
16c#	8r	.
16AJJ)	.	.
=104	=104	=104
16r	8dd 8gg# 8ddd	.
(16BB-LL	.	.
16AA	8r	.
16BB-	.	.
16D	8r	.
16BB-JJ)	.	.
=105	=105	=105
16r	8ee 8aa 8ccc#	.
(16AALL	.	.
16GG#	8r	.
16AA	.	.
16C#	8r	.
16AAJJ)	.	.
=106	=106	=106
8AAA	4.r	.
8r	.	.
8r	.	.
=107	=107	=107
4.r	8r	.
.	8r	.
.	(16cccnLL	f
.	16aaJJ	.
=108	=108	=108
4.r	8ff'L)	.
.	8ff'	.
.	8ff'J	.
*clefG2	*	*
=109	=109	=109
.	(32eeqq	.
8g 8ccn	8bb-)	p
8r	8r	.
8r	8r	.
=110	=110	=110
.	(32ffqq	.
8f 8cc	8aa)	.
8r	8r	.
8r	8r	.
=111	=111	=111
.	(32eeqq	.
8b- 8cc	8gg)	.
8r	8r	.
8r	8r	.
=112	=112	=112
(4.a	(16ffLL	f
.	16gg	.
.	16aa	.
.	16ff	.
.	16cc	.
.	16cc#JJ	.
=113	=113	=113
8b-)	16ddLL	.
.	16ee	.
8r	16ff	.
.	16dd	.
8r	16g	.
.	16aJJ	.
=114	=114	=114
(8GL	16b-LL	.
.	16cc	.
8B-	16dd	.
.	16b-	.
8BnJ	16d	.
.	16fJJ	.
=115	=115	=115
8c)	16eLL	.
.	16f	.
8r	16g	.
.	16eJJ	.
8r	16ccLL>	.
.	16aJJ	.
=116	=116	=116
4.r	8f'L)	.
.	8f'	.
.	8f'J	.
*clefF4	*	*
=117	=117	=117
.	(>32eqq	.
8G 8c	8b-)	p
8r	8r	.
8r	8r	.
=118	=118	=118
.	(32fqq	.
8F 8c	8a)	.
8r	8r	.
8r	8r	.
=119	=119	=119
.	(32eqq	.
8B- 8c	8g)	.
8r	8r	.
8r	8r	.
=120	=120	=120
4.AA (4.A	(16fLL	f
.	16g	.
.	16a	.
.	16b-	.
.	16cc	.
.	16cc#JJ	.
=121	=121	=121
8BB- 8B-)	16ddLL	.
.	16ee	.
8r	16ff	.
.	16gg	.
8r	16aa	.
.	16bb-JJ	.
=122	=122	=122
8r	8ccc')	.
8cL	8a 8ffL	.
8CJ	8g 8eeJ	.
=123	=123	=123
8FL	4a 4ff	.
8FF	.	.
8FFJ	8r	.
=124	=124	=124
8FFL	(8d 8b-L	p
8FF	8c 8a	.
8FFJ	8B-) 8gJ	.
=125	=125	=125
8FFL	(8B- 8gL	.
8FF	8A) 8f	.
8FFJ	8A' 8f'J	.
=126	=126	=126
8FFL	8A' 8f'L	.
8FF	8B-' 8g'	.
8FFJ	8G' 8e'J	.
=127	=127	=127
8FFL	8A 8f	.
8F	8r	.
8FJ	8r	.
=128	=128	=128
8FL	8b- (8ddL	.
8F	8a 8cc	.
8FJ	8g 8b-J)	.
=129	=129	=129
8FL	(8g 8b-L	.
8F	8f) 8a	.
8FJ	8f' 8a'J	.
=130	=130	=130
8FL	8f' 8a'L	.
8F	8g' 8b-'	.
8FJ	8e' 8g'J	.
=131	=131	=131
8FL	8f 8a	.
8F	8r	.
8FJ	8r	.
*clefG2	*	*
=132	=132	=132
8f	16r	.
.	(16aLL	f
8r	16dd	.
.	16ffJJ	.
16r	8aa)	.
(16f	.	.
=133	=133	=133
8e)	16r	.
.	(16gLL	.
8r	16cc	.
.	16eeJJ	.
16r	8gg)	.
(16e	.	.
=134	=134	=134
8d)	16r	.
.	(>16fLL	.
8r	16bn	.
.	16ddJJ	.
16r	8ff)	.
(16d	.	.
=135	=135	=135
8c)	16r	.
.	(>16eLL	.
8r	16g	.
.	16ccJJ	.
16r	8ee)	.
(16cc	.	.
=136	=136	=136
8b-X)	16r	.
.	(16ddLL	.
8r	16gg	.
.	16bb-XJJ)	.
16r	8ddd	.
(16b-	.	.
=137	=137	=137
8a)	16r	.
.	(16ccLL	.
8r	16ff	.
.	16aaJJ	.
16r	8ccc)	.
(16a	.	.
=138	=138	=138
8g)	16r	.
.	(16b-LL	.
8r	16ee	.
.	16ggJJ	.
16r	8bb-)	.
(16g	.	.
=139	=139	=139
8f)	16r	.
.	(16aLL	.
8r	16cc	.
.	16ffJJ	.
16r	8aa)	.
(16f	.	.
=140	=140	=140
4b-/)	16r	.
.	(16ddLL	.
.	16gg	.
.	16ff#	.
8r	16aa	.
.	16ggJJ	.
=141	=141	=141
4.r	16bb-LL	.
.	16aa	.
.	16ccc	.
.	16bb-	.
.	16ddd	.
.	16ccc#JJ	.
*clefF4	*	*
=142	=142	=142
8r	8ddd)	.
8r	8r	.
(8Bn	8a (8ff	p
=143	=143	=143
8c)	8g 8ee)	.
8r	8r	.
(8BBn	8r	f
=144	=144	=144
8C)	8r	.
8r	8r	.
*clefG2	*	*
(8bn	8aa (8fff	p
=145	=145	=145
8cc)	8gg 8eee)	.
8r	8r	.
*clefF4	*	*
(8Bn	8r	f
=146	=146	=146
8c)	8r	.
8r	8r	.
(8BBn	8a (8ff	p
=147	=147	=147
8C)	8g 8ee)	f
8r	8r	.
(8BBBn	8r	.
=148	=148	=148
8CC)	4.r;	.
8r	.	.
8r;	.	.
=149	=149	=149
4.r	8.bb-XL	p
.	16bb-k	.
.	8bb-J	.
=150	=150	=150
.	(32bb-qLLL	.
.	32cccqJJJ	.
4.r	8.dddL)	.
.	16ccck	.
.	8bb-J	.
=151	=151	=151
4.r	8.bb-L	.
.	16bb-k	.
.	8bb-J	.
=152	=152	=152
.	(32bb-qLLL	.
.	32cccqJJJ	.
4.r	8.dddL)	.
.	16ccck	.
.	8bb-J	.
*clefG2	*	*
=153	=153	=153
(16fLL	8aa	.
16cc	.	.
16a	8r	.
16cc	.	.
16f	8aa	.
16ccJJ	.	.
=154	=154	=154
16eLL	(4ccc	fp
16cc	.	.
16g	.	.
16cc	.	.
16e	8bb-)	.
16ccJJ	.	.
=155	=155	=155
16fLL	8aa	.
16cc	.	.
16a	8r	.
16cc	.	.
16f	8aa	.
16ccJJ	.	.
=156	=156	=156
16eLL	(4ccc	fp
16cc	.	.
16g	.	.
16cc	.	.
16e	8bb-)	.
16ccJJ	.	.
=157	=157	=157
16fLL	8aa	.
16a	.	.
16cc	8r	.
16ff	.	.
16ee	8aa	.
16ffJJ)	.	.
=158	=158	=158
4dd 4ff	(8cccL	f
.	8bb-)	.
8cc 8ee	8aa'J	p
=159	=159	=159
4b- 4dd	(8aaL	f
.	8gg)	.
(8bn	8ff'J	p
=160	=160	=160
8cc)	8.ffTL	.
8r	.	.
.	16ggk	.
8r	8eeJ	.
*clefF4	*	*
=161	=161	=161
8.GL	8.b-XL	p
16Gk	16b-k	.
8GJ	8b-J	.
=162	=162	=162
(32GqLLL	(32b-qLLL	.
32AqJJJ	32ccqJJJ	.
8.B-L)	8.ddL)	.
16Ak	16cck	.
8GJ	8b-J	.
=163	=163	=163
8.GL	8.b-L	.
16Gk	16b-k	.
8GJ	8b-J	.
=164	=164	=164
(32GqLLL	(32b-qLLL	.
32AqJJJ	32ccqJJJ	.
8.B-L)	8.ddL)	.
16Ak	16cck	.
8GJ	8b-J	.
=165	=165	=165
!	!LO:TX:i:a:t=legato	!
8F	16aLL	.
.	16f	.
8r	16c	.
.	16f	.
8r	16a	.
.	16fJJ	.
=166	=166	=166
(>4.EE (4.E	16ccLL	fp
.	16c	.
.	16bn	.
.	16c	.
.	16b-	.
.	16cJJ	.
=167	=167	=167
8FF) 8F)	16aLL	.
.	16f	.
8r	16c	.
.	16f	.
8r	16a	.
.	16fJJ	.
=168	=168	=168
(>4.EE (4.E	16ccLL	fp
.	16c	.
.	16bn	.
.	16c	.
.	16b-	.
.	16cJJ	.
=169	=169	=169
8FF) 8F)	16aLL	.
.	16cc	.
8r	16ff	.
.	16ee	.
8r	16dd	.
.	16ccJJ	.
=170	=170	=170
4d 4f	16b-LL	f
.	16cc	.
.	16dd	.
.	16b-	.
8c 8e	16g#	p
.	16aJJ	.
=171	=171	=171
4B- 4d	16gnLL	f
.	16a	.
.	16b-	.
.	16g	.
8A 8c	16e	p
.	16fJJ	.
=172	=172	=172
8B-L	16gLL	f
.	16b-	.
8c	16a	.
.	16f	.
8CJ	16e	.
.	16gJJ	.
=173	=173	=173
8F	16fLL	.
.	16g	.
8r	16a	.
.	16f	.
8r	16d	.
.	16cJJ	.
=174	=174	=174
4D 4F	16B-<LL	f
.	16c<	.
.	16d<	.
.	16B-<	.
8C 8E	16G#<	p
.	16A<JJ	.
=175	=175	=175
4BB-\ 4D\	16Gn<LL	f
.	16A<	.
.	16B-<	.
.	16G<	.
8AA\ 8C\	16E<	p
.	16F<JJ	.
=176	=176	=176
8BB-L<	16G<LL	f
.	16B-<	.
8C	16A<	.
.	16F<	.
8CCJ	16E<	.
.	16G<JJ	.
=177	=177	=177
*^	*	*
8F	8FF	8r	.
8r	8ryy	8cc'L	p
8r	8ryy	8a'J	.
*v	*v	*	*
=178	=178	=178
8r	8f'	.
8A 8e-L	8r	.
8A 8e-J	8r	.
=179	=179	=179
8B- 8d	8r	.
8r	8ff'L	.
8r	8dd'J	.
*clefG2	*	*
=180	=180	=180
8r	8b-'	.
8d 8fL	8r	.
8d 8fJ	8r	.
=181	=181	=181
8c 8en	8r	.
8r	8bb-'L	.
8r	8gg'J	.
=182	=182	=182
8r	8ee'	.
8c 8b-L	8r	.
8c 8b-J	8r	.
=183	=183	=183
8f 8a	16r	.
.	(16ffLL	f
8r	16ee	.
.	16ff	.
8r	16aa	.
.	16cccJJ)	.
=184	=184	=184
8c 8g 8b-	16r	.
.	(16bb-LL	.
8r	16aa	.
.	16bb-	.
8r	16gg	.
.	16eeJJ)	.
=185	=185	=185
8f 8a	16r	.
.	(16ffLL	.
8r	16ee	.
.	16ff	.
8r	16cc	.
.	16aJJ)	.
*clefF4	*	*
=186	=186	=186
8C 8E 8G	16r	.
.	(16b-LL	.
8r	16a	.
.	16b-	.
8r	16g	.
.	16eJJ)	.
=187	=187	=187
(16FFLL	4f	.
16F	.	.
16E	.	.
16F	.	.
16G	8r	.
16FJJ)	.	.
=188	=188	=188
(16ALL	4f: 4a: 4cc:	.
16F	.	.
16C	.	.
16F	.	.
16AA	8r	.
16CJJ)	.	.
=189	=189	=189
8FFL	8a 8cc 8ffL	.
8AA	8a 8cc 8ff	.
8CJ	8a 8cc 8ffJ	.
=190	=190	=190
8FF	8a 8cc 8ff	.
8r	8r	.
=:|!	=:|!	=:|!
*-	*-	*-
!!!RDF**kern: > = above
!!!RDF**kern: < = below
!!!YOR: Alte Mozart-Ausgabe, Band 20, Breitkopf &amp; H&auml;rtel 1877-1883.
!!!YOY: 1878
!!!YEC: 2018 Craig Stuart Sapp
!!!YEM: Licence: (CC BY-NC-SA 4.0) https://creativecommons.org/licenses/by-nc-sa/4.0
!!!YER: 2018
!!!ENC: Craig Stuart Sapp
!!!END: 2009/09/24
!!!EED: Craig Stuart Sapp
!!!EEV: 2018/06/13
!!!EFL: 6/69
!!!AGN: piano sonata
!!!AFR: 
!!!title: @{OTL}, K 280 (189e), mvmt. @{OMV}
